icons/svg/numeric-9-box.svg

<svg xmlns="http://www.w3.org/2000/svg" version="1.1" baseProfile="full" width="24" height="24" viewBox="0 0 24.00 24.00" xml:space="preserve"><path fill="#000" fill-opacity="1" stroke-width=".2" stroke-linejoin="round" d="M19 3c1.1 0 2 .9 2 2v14c0 1.1-.9 2-2 2H5c-1.1 0-2-.9-2-2V5c0-1.1.9-2 2-2h14zm-6 8h-2V9h2v2zm0-4h-2c-1.1 0-2 .89-2 2v2c0 1.11.9 2 2 2h2v2H9v2h4c1.1 0 2-.89 2-2V9c0-1.11-.9-2-2-2z"/></svg>

﻿<?xml version="1.0" encoding="utf-8"?>
<!DOCTYPE svg PUBLIC "-//W3C//DTD SVG 1.1//EN" "http://www.w3.org/Graphics/SVG/1.1/DTD/svg11.dtd">
<svg xmlns="http://www.w3.org/2000/svg" xmlns:xlink="http://www.w3.org/1999/xlink" version="1.1" baseProfile="full" width="24" height="24" viewBox="0 0 24.00 24.00" enable-background="new 0 0 24.00 24.00" xml:space="preserve">
	<path fill="#000000" fill-opacity="1" stroke-width="0.2" stroke-linejoin="round" d="M 19,3C 20.1,3 21,3.9 21,5L 21,19C 21,20.1 20.1,21 19,21L 5,21C 3.9,21 3,20.1 3,19L 3,5C 3,3.9 3.9,3 5,3L 19,3 Z M 13,11L 11,11L 11,9L 13,9L 13,11 Z M 13,7L 11,7C 9.9,7 9,7.89 9,9L 9,11C 9,12.11 9.9,13 11,13L 13,13L 13,15L 9,15L 9,17L 13,17C 14.1,17 15,16.11 15,15L 15,9C 15,7.89 14.1,7 13,7 Z "/>
</svg>
